symbols/web/sensor_occupied/materialsymbolsrounded/sensor_occupied_wght100grad200fill1_20px.svg

<svg xmlns="http://www.w3.org/2000/svg" height="20" width="20"><path d="M10 9.042q-.896 0-1.531-.636-.636-.635-.636-1.531 0-.896.636-1.531.635-.636 1.531-.636.896 0 1.531.636.636.635.636 1.531 0 .896-.636 1.531-.635.636-1.531.636Zm-3.729 4.375q-.375 0-.656-.282-.282-.281-.282-.656v-.312q0-.375.177-.688.178-.312.511-.5.937-.583 1.969-.823 1.031-.239 2.01-.239 1 0 2.021.25t1.958.812q.313.188.5.5.188.313.188.688v.312q0 .375-.282.656-.281.282-.656.282Zm6.917-11.084q.083-.25.385-.281.302-.031.552.094 1.208.646 2.177 1.583.969.938 1.594 2.146.146.229.052.469-.094.239-.344.344-.25.083-.5-.042t-.416-.396q-.48-.958-1.303-1.76t-1.802-1.282q-.291-.146-.385-.396-.094-.25-.01-.479Zm-6.438.021q.062.271-.042.521-.104.25-.396.417-1 .5-1.822 1.302-.823.802-1.302 1.802-.167.25-.386.375t-.469.041q-.25-.104-.323-.364-.072-.26.052-.49.605-1.27 1.594-2.239.99-.969 2.219-1.615.229-.146.521-.073.292.073.354.323ZM2.354 13.229q.25-.083.49.042.239.125.427.396.5 1.021 1.323 1.791.823.771 1.823 1.292.25.146.354.385.104.24.041.511-.062.25-.281.354-.219.104-.448-.021-1.312-.667-2.312-1.614-1-.948-1.667-2.219-.146-.25-.073-.521t.323-.396Zm15.396-.208q.25.041.323.333.073.292-.073.521-.667 1.292-1.677 2.354-1.011 1.063-2.323 1.709-.229.104-.448.02-.219-.083-.302-.333-.042-.25.062-.479.105-.229.334-.375 1-.563 1.833-1.406.833-.844 1.354-1.886.167-.25.407-.375.239-.125.51-.083Z"/></svg>

<svg xmlns="http://www.w3.org/2000/svg" height="20" width="20"><path d="M10 9.042Q9.104 9.042 8.469 8.406Q7.833 7.771 7.833 6.875Q7.833 5.979 8.469 5.344Q9.104 4.708 10 4.708Q10.896 4.708 11.531 5.344Q12.167 5.979 12.167 6.875Q12.167 7.771 11.531 8.406Q10.896 9.042 10 9.042ZM6.271 13.417Q5.896 13.417 5.615 13.135Q5.333 12.854 5.333 12.479V12.167Q5.333 11.792 5.51 11.479Q5.688 11.167 6.021 10.979Q6.958 10.396 7.99 10.156Q9.021 9.917 10 9.917Q11 9.917 12.021 10.167Q13.042 10.417 13.979 10.979Q14.292 11.167 14.479 11.479Q14.667 11.792 14.667 12.167V12.479Q14.667 12.854 14.385 13.135Q14.104 13.417 13.729 13.417ZM13.188 2.333Q13.271 2.083 13.573 2.052Q13.875 2.021 14.125 2.146Q15.333 2.792 16.302 3.729Q17.271 4.667 17.896 5.875Q18.042 6.104 17.948 6.344Q17.854 6.583 17.604 6.688Q17.354 6.771 17.104 6.646Q16.854 6.521 16.688 6.25Q16.208 5.292 15.385 4.49Q14.562 3.688 13.583 3.208Q13.292 3.062 13.198 2.812Q13.104 2.562 13.188 2.333ZM6.75 2.354Q6.812 2.625 6.708 2.875Q6.604 3.125 6.312 3.292Q5.312 3.792 4.49 4.594Q3.667 5.396 3.188 6.396Q3.021 6.646 2.802 6.771Q2.583 6.896 2.333 6.812Q2.083 6.708 2.01 6.448Q1.938 6.188 2.062 5.958Q2.667 4.688 3.656 3.719Q4.646 2.75 5.875 2.104Q6.104 1.958 6.396 2.031Q6.688 2.104 6.75 2.354ZM2.354 13.229Q2.604 13.146 2.844 13.271Q3.083 13.396 3.271 13.667Q3.771 14.688 4.594 15.458Q5.417 16.229 6.417 16.75Q6.667 16.896 6.771 17.135Q6.875 17.375 6.812 17.646Q6.75 17.896 6.531 18Q6.312 18.104 6.083 17.979Q4.771 17.312 3.771 16.365Q2.771 15.417 2.104 14.146Q1.958 13.896 2.031 13.625Q2.104 13.354 2.354 13.229ZM17.75 13.021Q18 13.062 18.073 13.354Q18.146 13.646 18 13.875Q17.333 15.167 16.323 16.229Q15.312 17.292 14 17.938Q13.771 18.042 13.552 17.958Q13.333 17.875 13.25 17.625Q13.208 17.375 13.312 17.146Q13.417 16.917 13.646 16.771Q14.646 16.208 15.479 15.365Q16.312 14.521 16.833 13.479Q17 13.229 17.24 13.104Q17.479 12.979 17.75 13.021Z"/></svg>
